svg/u1f202.svg

<svg viewBox="0 0 128 128" xmlns="http://www.w3.org/2000/svg">
  <g>
    <path d="M116,4H12c-4.42,0-8,3.58-8,8v104c0,4.42,3.58,8,8,8h104c4.42,0,8-3.58,8-8V12 C124,7.58,120.42,4,116,4z" fill="#427687"/>
    <path d="M109.7,4H11.5C7.37,4.03,4.03,7.37,4,11.5v97.9c-0.01,4.14,3.34,7.49,7.48,7.5c0.01,0,0.01,0,0.02,0 h98.1c4.14,0.01,7.49-3.34,7.5-7.48c0-0.01,0-0.01,0-0.02V11.5c0.09-4.05-3.13-7.41-7.18-7.5C109.85,4,109.77,4,109.7,4z" fill="#8CAFBF"/>
    <path d="M98.9,41.4c3.6,0,6.3-0.1,8.4-0.3c1.1-0.11,2.08,0.69,2.19,1.79c0,0.04,0.01,0.07,0.01,0.11v6.8 c0,1.1-0.89,2-2,2c-0.03,0-0.07,0-0.1,0c-2-0.1-4.9-0.2-8.4-0.2h-8c-1.06,0.01-1.91,0.88-1.9,1.94c0,0.02,0,0.04,0,0.06v1.6 c0,26.7-5.9,41.7-29.5,52.7c-0.73,0.31-1.58,0.19-2.2-0.3l-5.7-5.4c-0.78-0.74-0.81-1.97-0.07-2.74c0.19-0.2,0.42-0.35,0.67-0.46 c17.7-7.1,26-16.6,26-43.1v-2.2c0-1.07-0.83-1.95-1.9-2h-24c-1.1,0-2,0.9-2,2v13.8c0,3,0.2,6.1,0.3,8.1c0.06,1.1-0.79,2.04-1.9,2.1 c-0.03,0-0.07,0-0.1,0h-7.4c-1.12-0.05-2.01-0.98-2-2.1c0.2-2.1,0.4-5.1,0.4-8.1v-14c0-1.1-0.9-2-2-2h-8.4c-3.5,0-6.7,0.1-8.9,0.2 c-1.07,0.03-1.97-0.81-2-1.88c0-0.04,0-0.08,0-0.12v-7c-0.04-1.02,0.74-1.87,1.76-1.92c0.11,0,0.23,0,0.34,0.02 c2.2,0.2,5.4,0.5,8.8,0.5h8.4c1.1,0,2-0.9,2-2v-10c0-2.4-0.2-4.6-0.3-6.3c-0.06-1.1,0.79-2.04,1.9-2.1c0.03,0,0.07,0,0.1,0h7.4 c1.03-0.03,1.9,0.78,1.93,1.81c0,0.13-0.01,0.26-0.03,0.39c-0.22,2.09-0.32,4.2-0.3,6.3v10.1c0,1.1,0.9,2,2,2h23.9 c1.06-0.01,1.91-0.88,1.9-1.94c0-0.02,0-0.04,0-0.06V29.2c0.02-2.34-0.08-4.67-0.3-7c-0.05-1.16,0.84-2.14,2-2.2h7.5 c1.02-0.04,1.87,0.74,1.92,1.76c0,0.11,0,0.23-0.02,0.34c-0.26,2.32-0.4,4.66-0.4,7v10.2c0,1.07,0.83,1.95,1.9,2L98.9,41.4z" fill="#FAFAFA"/>
    <path d="M39.7,12.9c0-2.3-1.6-3-10.8-2.7c-7.7,0.3-11.5,1.2-13.8,4 s-2.9,8.5-3,15.3c0,4.8,0,9.3,2.5,9.3c3.4,0,3.4-7.9,6.2-12.3C26.2,17.8,39.7,15.9,39.7,12.9z" opacity="0.5" fill="#B4E1ED" enable-background="new "/>
  </g>
</svg>

<svg viewBox="0 0 128 128" xmlns="http://www.w3.org/2000/svg">
  <defs/>
  <path d="M116,4 L12,4 C7.58,4 4,7.58 4,12 L4,116 C4,120.42 7.58,124 12,124 L116,124 C120.42,124 124,120.42 124,116 L124,12 C124,7.58 120.42,4 116,4 Z" fill="#427687"/>
  <path d="M109.7,4 L11.5,4 C7.37,4.03 4.03,7.37 4,11.5 L4,109.4 C3.99,113.54 7.34,116.89 11.48,116.9 C11.49,116.9 11.49,116.9 11.5,116.9 L109.6,116.9 C113.74,116.91 117.09,113.56 117.1,109.42 C117.1,109.41 117.1,109.41 117.1,109.4 L117.1,11.5 C117.19,7.45 113.97,4.09 109.92,4 C109.85,4 109.77,4 109.7,4 Z" fill="#8CAFBF"/>
  <path d="M98.9,41.4 C102.5,41.4 105.2,41.3 107.3,41.1 C108.4,40.99 109.38,41.79 109.49,42.89 C109.49,42.93 109.5,42.96 109.5,43 L109.5,49.8 C109.5,50.9 108.61,51.8 107.5,51.8 C107.47,51.8 107.43,51.8 107.4,51.8 C105.4,51.7 102.5,51.6 99,51.6 L91,51.6 C89.94,51.61 89.09,52.48 89.1,53.54 C89.1,53.56 89.1,53.58 89.1,53.6 L89.1,55.2 C89.1,81.9 83.2,96.9 59.6,107.9 C58.87,108.21 58.02,108.09 57.4,107.6 L51.7,102.2 C50.92,101.46 50.89,100.23 51.63,99.46 C51.82,99.26 52.05,99.11 52.3,99 C70,91.9 78.3,82.4 78.3,55.9 L78.3,53.7 C78.3,52.63 77.47,51.75 76.4,51.7 L52.4,51.7 C51.3,51.7 50.4,52.6 50.4,53.7 L50.4,67.5 C50.4,70.5 50.6,73.6 50.7,75.6 C50.76,76.7 49.91,77.64 48.8,77.7 C48.77,77.7 48.73,77.7 48.7,77.7 L41.3,77.7 C40.18,77.65 39.29,76.72 39.3,75.6 C39.5,73.5 39.7,70.5 39.7,67.5 L39.7,53.5 C39.7,52.4 38.8,51.5 37.7,51.5 L29.3,51.5 C25.8,51.5 22.6,51.6 20.4,51.7 C19.33,51.73 18.43,50.89 18.4,49.82 C18.4,49.78 18.4,49.74 18.4,49.7 L18.4,42.7 C18.36,41.68 19.14,40.83 20.16,40.78 C20.27,40.78 20.39,40.78 20.5,40.8 C22.7,41 25.9,41.3 29.3,41.3 L37.7,41.3 C38.8,41.3 39.7,40.4 39.7,39.3 L39.7,29.3 C39.7,26.9 39.5,24.7 39.4,23 C39.34,21.9 40.19,20.96 41.3,20.9 C41.33,20.9 41.37,20.9 41.4,20.9 L48.8,20.9 C49.83,20.87 50.7,21.68 50.73,22.71 C50.73,22.84 50.72,22.97 50.7,23.1 C50.48,25.19 50.38,27.3 50.4,29.4 L50.4,39.5 C50.4,40.6 51.3,41.5 52.4,41.5 L76.3,41.5 C77.36,41.49 78.21,40.62 78.2,39.56 C78.2,39.54 78.2,39.52 78.2,39.5 L78.2,29.2 C78.22,26.86 78.12,24.53 77.9,22.2 C77.85,21.04 78.74,20.06 79.9,20 L87.4,20 C88.42,19.96 89.27,20.74 89.32,21.76 C89.32,21.87 89.32,21.99 89.3,22.1 C89.04,24.42 88.9,26.76 88.9,29.1 L88.9,39.3 C88.9,40.37 89.73,41.25 90.8,41.3 L98.9,41.4 Z" fill="#FAFAFA"/>
  <path d="M39.7,12.9 C39.7,10.6 38.1,9.9 28.9,10.2 C21.2,10.5 17.4,11.4 15.1,14.2 C12.8,17 12.2,22.7 12.1,29.5 C12.1,34.3 12.1,38.8 14.6,38.8 C18,38.8 18,30.9 20.8,26.5 C26.2,17.8 39.7,15.9 39.7,12.9 Z" fill="#B4E1ED" opacity="0.5"/>
</svg>
